_inc/systems/logos/auto-at4players.svg

<?xml version="1.0" encoding="utf-8"?>
<svg version="1.1" id="2players" x="0px" y="0px" viewBox="0 0 200 40" xmlns="http://www.w3.org/2000/svg">
  <path d="M 66.863 25.433 L 63.143 25.433 L 62.363 29.963 L 56.663 29.963 L 59.963 11.213 L 68.963 11.213 C 72.363 11.213 74.063 12.793 74.063 15.953 C 74.063 17.453 73.853 18.808 73.433 20.018 C 73.013 21.228 72.548 22.188 72.038 22.898 C 71.528 23.608 70.828 24.208 69.938 24.698 C 69.048 25.188 68.023 25.433 66.863 25.433 Z M 64.793 16.013 L 63.983 20.633 L 65.303 20.633 C 65.983 20.633 66.498 20.558 66.848 20.408 C 67.198 20.258 67.423 19.913 67.523 19.373 C 67.783 17.893 67.913 17.083 67.913 16.943 C 67.913 16.563 67.763 16.313 67.463 16.193 C 67.163 16.073 66.713 16.013 66.113 16.013 Z M 85.252 29.963 L 73.852 29.963 L 77.152 11.213 L 82.852 11.213 L 80.392 25.163 L 86.092 25.163 Z M 89.391 29.963 L 83.391 29.963 L 91.281 11.213 L 100.101 11.213 L 101.421 29.963 L 95.391 29.963 L 95.271 26.993 L 90.561 26.993 Z M 94.521 16.973 L 92.421 22.223 L 94.821 22.223 L 94.821 16.973 Z M 109.01 11.213 L 109.4 17.813 L 109.61 17.813 L 112.37 11.213 L 118.67 11.213 L 111.11 24.863 L 110.24 29.963 L 104.54 29.963 L 105.41 24.863 L 102.71 11.213 Z M 129.109 22.883 L 123.409 22.883 L 123.019 25.163 L 130.009 25.163 L 129.169 29.963 L 116.479 29.963 L 119.779 11.213 L 132.319 11.213 L 130.759 16.013 L 124.609 16.013 L 124.189 18.533 L 129.889 18.533 Z M 147.918 29.963 L 141.648 29.963 L 140.268 24.383 L 139.038 24.383 L 138.078 29.963 L 132.378 29.963 L 135.678 11.213 L 144.678 11.213 C 148.098 11.213 149.808 12.743 149.808 15.803 C 149.808 17.063 149.618 18.263 149.238 19.403 C 148.538 21.563 147.438 23.003 145.938 23.723 Z M 140.508 16.013 L 139.848 19.763 L 141.168 19.763 C 141.848 19.763 142.363 19.688 142.713 19.538 C 143.063 19.388 143.303 18.958 143.433 18.248 C 143.563 17.538 143.628 17.103 143.628 16.943 C 143.628 16.543 143.473 16.288 143.163 16.178 C 142.853 16.068 142.348 16.013 141.648 16.013 Z M 149.806 29.633 L 151.486 24.683 C 153.166 25.143 154.706 25.373 156.106 25.373 C 157.506 25.373 158.636 25.313 159.496 25.193 L 159.736 23.693 L 157.246 23.453 C 155.346 23.273 154.001 22.843 153.211 22.163 C 152.421 21.483 152.026 20.523 152.026 19.283 C 152.026 18.743 152.086 18.143 152.206 17.483 C 152.666 14.923 153.501 13.163 154.711 12.203 C 155.921 11.243 157.796 10.763 160.336 10.763 C 162.876 10.763 165.116 11.013 167.056 11.513 L 165.496 16.313 C 163.756 16.013 162.356 15.863 161.296 15.863 C 160.236 15.863 159.336 15.913 158.596 16.013 L 158.356 17.483 L 160.366 17.693 C 162.406 17.913 163.856 18.398 164.716 19.148 C 165.576 19.898 166.006 20.903 166.006 22.163 C 166.006 23.443 165.726 24.763 165.166 26.123 C 164.886 26.823 164.581 27.408 164.251 27.878 C 163.921 28.348 163.501 28.748 162.991 29.078 C 162.481 29.408 162.016 29.658 161.596 29.828 C 161.176 29.998 160.646 30.123 160.006 30.203 C 159.066 30.343 157.916 30.413 156.556 30.413 C 154.076 30.413 151.826 30.153 149.806 29.633 Z" style="white-space: pre; fill: rgb(255, 255, 255);"/>
  <path d="M 38.742 13.182 C 40.542 13.182 41.999 11.725 41.999 9.925 C 41.999 8.126 40.542 6.669 38.742 6.669 C 36.943 6.669 35.486 8.126 35.486 9.925 C 35.486 11.725 36.943 13.182 38.742 13.182 Z M 40.976 14.112 L 40.734 14.112 C 40.13 14.403 39.458 14.578 38.742 14.578 C 38.027 14.578 37.358 14.403 36.751 14.112 L 36.51 14.112 C 34.661 14.112 33.16 15.613 33.16 17.462 L 33.16 18.299 C 33.16 19.069 33.785 19.695 34.556 19.695 L 42.929 19.695 C 43.7 19.695 44.325 19.069 44.325 18.299 L 44.325 17.462 C 44.325 15.613 42.825 14.112 40.976 14.112 Z M 47.117 13.182 C 48.657 13.182 49.907 11.931 49.907 10.39 C 49.907 8.849 48.657 7.599 47.117 7.599 C 45.575 7.599 44.325 8.849 44.325 10.39 C 44.325 11.931 45.575 13.182 47.117 13.182 Z M 48.512 14.112 L 48.402 14.112 C 47.997 14.252 47.57 14.345 47.117 14.345 C 46.663 14.345 46.235 14.252 45.831 14.112 L 45.721 14.112 C 45.128 14.112 44.581 14.284 44.101 14.56 C 44.81 15.324 45.255 16.34 45.255 17.462 L 45.255 18.578 C 45.255 18.643 45.241 18.704 45.238 18.764 L 50.373 18.764 C 51.143 18.764 51.768 18.138 51.768 17.369 C 51.768 15.568 50.312 14.112 48.512 14.112 Z" style="fill: rgb(255, 255, 255);"/>
  <path d="M 38.655 26.666 C 40.498 26.666 41.988 28.157 41.988 29.999 C 41.988 31.84 40.498 33.331 38.655 33.331 C 36.814 33.331 35.323 31.84 35.323 29.999 C 35.323 28.157 36.814 26.666 38.655 26.666 Z M 40.941 25.714 L 40.693 25.714 C 40.075 25.416 39.388 25.238 38.655 25.238 C 37.924 25.238 37.239 25.416 36.617 25.714 L 36.371 25.714 C 34.479 25.714 32.943 24.179 32.943 22.286 L 32.943 21.429 C 32.943 20.641 33.583 20.001 34.371 20.001 L 42.94 20.001 C 43.729 20.001 44.368 20.641 44.368 21.429 L 44.368 22.286 C 44.368 24.179 42.833 25.714 40.941 25.714 Z M 47.225 26.666 C 48.802 26.666 50.081 27.946 50.081 29.523 C 50.081 31.1 48.802 32.379 47.225 32.379 C 45.647 32.379 44.368 31.1 44.368 29.523 C 44.368 27.946 45.647 26.666 47.225 26.666 Z M 48.653 25.714 L 48.54 25.714 C 48.126 25.571 47.689 25.476 47.225 25.476 C 46.76 25.476 46.323 25.571 45.909 25.714 L 45.797 25.714 C 45.19 25.714 44.63 25.538 44.139 25.256 C 44.865 24.474 45.32 23.435 45.32 22.286 L 45.32 21.144 C 45.32 21.078 45.306 21.015 45.303 20.953 L 50.557 20.953 C 51.346 20.953 51.985 21.594 51.985 22.382 C 51.985 24.224 50.495 25.714 48.653 25.714 Z" style="fill: rgb(255, 255, 255);" transform="matrix(-1, 0, 0, -1, 84.928001, 53.332001)"/>
</svg>

<svg xmlns="http://www.w3.org/2000/svg" viewBox="0 0 200 40"><path d="M66.86 25.43h-3.72l-.78 4.53h-5.7l3.3-18.75h9q5.1 0 5.1 4.74a12.3 12.3 0 0 1-2.02 6.95 6.2 6.2 0 0 1-5.18 2.53m-2.07-9.42-.8 4.62h1.31q1.02 0 1.55-.22.52-.23.67-1.04.4-2.22.4-2.43 0-.57-.46-.75-.45-.18-1.35-.18Zm20.46 13.95h-11.4l3.3-18.75h5.7L80.4 25.16h5.7Zm4.14 0h-6l7.9-18.75h8.81l1.32 18.75H95.4L95.27 27h-4.7Zm5.13-12.99-2.1 5.25h2.4v-5.25Zm14.49-5.76.39 6.6h.21l2.76-6.6h6.3l-7.56 13.65-.87 5.1h-5.7l.87-5.1-2.7-13.65Zm20.1 11.67h-5.7l-.4 2.28h7l-.84 4.8h-12.7l3.3-18.75h12.55l-1.56 4.8h-6.15l-.42 2.52h5.7Zm18.8 7.08h-6.26l-1.38-5.58h-1.23l-.96 5.58h-5.7l3.3-18.75h9q5.13 0 5.13 4.6 0 1.88-.57 3.6-1.05 3.23-3.3 4.31Zm-7.4-13.95-.66 3.75h1.32q1.02 0 1.54-.22.53-.22.72-1.3.2-1.06.2-1.3 0-.6-.47-.76a5 5 0 0 0-1.51-.17Zm9.3 13.62 1.68-4.95q2.52.7 4.62.7t3.39-.19l.24-1.5-2.5-.24q-2.85-.26-4.03-1.29a3.6 3.6 0 0 1-1.18-2.88q0-.81.18-1.8.7-3.84 2.5-5.28 1.82-1.44 5.63-1.44t6.72.75l-1.56 4.8q-2.61-.45-4.2-.45t-2.7.15l-.24 1.47 2 .21q3.07.32 4.36 1.46a3.8 3.8 0 0 1 1.29 3.01q0 1.92-.84 3.96-.42 1.05-.92 1.76-.5.7-1.26 1.2-.75.5-1.4.75-.62.26-1.58.37-1.42.21-3.45.21-3.72 0-6.75-.78" style="white-space:pre;fill:#fff"/><path d="M38.74 13.18a3.26 3.26 0 1 0 0-6.5 3.26 3.26 0 0 0 0 6.5m2.24.93h-.25a4.6 4.6 0 0 1-3.98 0h-.24a3.35 3.35 0 0 0-3.35 3.35v.84c0 .77.63 1.4 1.4 1.4h8.37c.77 0 1.4-.63 1.4-1.4v-.84c0-1.85-1.5-3.35-3.35-3.35m6.14-.93a2.8 2.8 0 1 0 0-5.58 2.8 2.8 0 0 0 0 5.58m1.4.93h-.12q-.6.22-1.28.24-.68-.01-1.29-.24h-.1q-.9.02-1.63.45a4.3 4.3 0 0 1 1.16 2.9v1.12l-.02.18h5.13c.77 0 1.4-.62 1.4-1.4 0-1.8-1.46-3.25-3.26-3.25" style="fill:#fff"/><path d="M38.66 26.67a3.33 3.33 0 1 1 0 6.66 3.33 3.33 0 0 1 0-6.66m2.28-.96h-.25a4.7 4.7 0 0 0-4.07 0h-.25a3.43 3.43 0 0 1-3.43-3.42v-.86c0-.79.64-1.43 1.43-1.43h8.57c.79 0 1.43.64 1.43 1.43v.86a3.43 3.43 0 0 1-3.43 3.42m6.29.96a2.86 2.86 0 1 1 0 5.71 2.86 2.86 0 0 1 0-5.71m1.42-.96h-.11a4 4 0 0 0-1.31-.23 4 4 0 0 0-1.32.23h-.11q-.92-.02-1.66-.45a4.4 4.4 0 0 0 1.18-2.97v-1.15l-.02-.19h5.26c.79 0 1.42.64 1.42 1.43a3.33 3.33 0 0 1-3.33 3.33" style="fill:#fff" transform="matrix(-1 0 0 -1 84.93 53.33)"/></svg>
